X:32
T:Carey's Dream (reel)  
T:The Cameronian
B:CRE1.128 (Aisling Ui Chiardha)
F:file ID: cre.1/032careys
S:John Potts
M:C
L:1/8
Q:180
R:reel
K:D
dB|A2FA DFAF|GFEF GABd|A2FA DFAF|GEAG FDD2|
A2FA DFAF|GFEF GABd|A2AF A2AF|(3ABc AG FDD2||
Adcd dfed|cdef gfed|(3cBA eA fAeA|edef gfed|
faeg fae2|fgaf defg|afge fdec|dABG FAdB||

%%%

